X: 64
T: No_57_Song_Used_in_Treatment_of_Sick_(f).krn
N: Derived from No_57_Song_Used_in_Treatment_of_Sick_(f).krn
%%abc-version 2.0
%%abcx-abcm2ps-target-version 5.9.1 (29 Sep 2008)
%%abc-creator hum2abc beta
%%abcx-conversion-date 2019/03/15 08:36:49
%%humdrum-veritas 4079911374
%%humdrum-veritas-data 2832804793
%%linebreak <none>
%%barnumbers 0
L: 1/8
M: 3/4
K: Bb clef=bass
[K:clef=bass][M:3/4]B,6 | 
B,6 ||  
[M:2/4]CB,C2- | 
C2B,B,/B,/ | 
B,4- | 
B,2B,2 | 
F,2F,2 | 
F,4 | 
G,F,G,2- | 
G,2F,2 ||  
[M:3/4]G,3/F,/G,3F, | 
F,6 | 
F,4-F,F, | 
F,6 |]  



